assets/simple-unconf.svg

<svg width="210" height="210" viewBox="0 0 210 210" fill="none" xmlns="http://www.w3.org/2000/svg">
<g clip-path="url(#clip0_4_882)">
<path d="M174.801 149.028L61.1021 149.1L61.1749 34.8226L112.355 34.79L174.834 97.2901L174.801 149.028Z" stroke="#5B4594" stroke-width="4"/>
<mask id="mask0_4_882" style="mask-type:luminance" maskUnits="userSpaceOnUse" x="-1" y="0" width="211" height="210">
<path d="M209.913 117.913L92 0L-0.000140825 92.0001L117.913 209.913L209.913 117.913Z" fill="white"/>
</mask>
<g mask="url(#mask0_4_882)">
<path d="M96.1846 123.295C96.1913 112.921 91.6217 104.676 82.7726 104.692C73.9346 104.698 69.3434 112.916 69.3257 123.323C69.3191 133.719 73.8998 141.931 82.7377 141.925C91.5757 141.92 96.1558 133.691 96.1846 123.295ZM86.5453 123.301C86.5404 130.937 85.0139 133.42 82.7654 133.421C80.517 133.423 78.9825 130.93 78.9985 123.306C79.0145 115.681 80.5187 113.198 82.7894 113.196C85.049 113.184 86.5724 115.687 86.5675 123.301M125.058 141.364L125.081 105.211L116.198 105.216L116.188 121.557L108.83 105.221L99.4241 105.216L99.3788 141.392L108.261 141.386L108.272 124.645L115.853 141.403L125.047 141.375L125.058 141.364ZM151.133 113.576L151.138 105.183L129.967 105.197L129.944 141.35L139.317 141.344L139.326 127.23L148.921 127.224L148.926 118.831L139.331 118.837L139.334 113.583L151.144 113.587L151.133 113.576ZM95.7772 81.4315L95.7817 56.8656L86.6989 56.8713L86.6834 81.2258C86.682 83.363 85.2675 84.6885 82.9523 84.6677C80.6371 84.6469 79.2688 83.3677 79.2813 81.1972L79.2968 56.8427L69.9246 56.8486L69.92 81.4146C69.9152 89.0059 75.2663 93.5328 82.8576 93.528C90.4489 93.5231 95.7947 88.9783 95.7995 81.387L95.8217 81.4093L95.7772 81.4315ZM125.567 93.0221L125.579 56.88L116.663 56.919L116.653 73.2593L109.339 56.8792L99.9224 56.8852L99.8994 93.0385L108.782 93.0328L108.815 76.2919L116.395 93.0502L125.567 93.0444L125.567 93.0221ZM154.616 80.9266L145.165 80.9437C144.84 84.4056 144.083 85.163 142.658 85.1639C139.608 85.1659 139.255 81.4706 139.248 74.9368C139.241 68.4029 139.644 64.8185 142.671 64.8166C143.918 64.8158 144.786 65.4163 145.006 68.4438L154.379 68.4378C153.928 60.3014 150.546 56.3187 142.877 56.3347C133.46 56.3407 129.672 62.5541 129.653 74.9651C129.645 87.365 133.425 93.5737 142.631 93.5789C150.912 93.5737 153.953 90.11 154.66 80.9711L154.627 80.9377L154.616 80.9266Z" fill="#E85554"/>
</g>
</g>
<defs>
<clipPath id="clip0_4_882">
<rect width="166.754" height="130.108" fill="white" transform="translate(92) rotate(45)"/>
</clipPath>
</defs>
</svg>

<svg xmlns="http://www.w3.org/2000/svg" width="117.734" height="118.312" fill="none"><g clip-path="url(#a)" transform="translate(-59.1 -32.79)"><path stroke="#5b4594" stroke-width="4" d="m174.801 149.028-113.699.072.073-114.277 51.18-.033 62.479 62.5Z"/><mask id="b" width="211" height="210" x="-1" y="0" maskUnits="userSpaceOnUse"><path fill="#fff" d="M209.913 117.913 92 0 0 92l117.913 117.913Z"/></mask><g mask="url(#b)"><path fill="#e85554" d="M96.185 123.295c.006-10.374-4.563-18.619-13.412-18.603-8.838.006-13.43 8.224-13.447 18.631-.007 10.396 4.574 18.608 13.412 18.602 8.838-.005 13.418-8.234 13.447-18.63zm-9.64.006c-.005 7.636-1.531 10.119-3.78 10.12-2.248.002-3.783-2.491-3.767-10.115.016-7.625 1.52-10.108 3.791-10.11 2.26-.012 3.783 2.491 3.778 10.105m38.491 18.063.023-36.153-8.883.005-.01 16.341-7.358-16.336-9.406-.005-.045 36.176 8.882-.006.011-16.741 7.581 16.758 9.194-.028zm26.075-27.788.005-8.393-21.171.014-.023 36.153 9.373-.006.009-14.114 9.595-.006.005-8.393-9.595.006.003-5.254 11.81.004zM95.777 81.432l.005-24.566-9.083.005-.016 24.355c-.001 2.137-1.416 3.463-3.73 3.442-2.316-.021-3.684-1.3-3.672-3.47l.016-24.355-9.372.006-.005 24.566c-.005 7.59 5.346 12.118 12.938 12.113 7.59-.005 12.937-4.55 12.942-12.141l.022.022zm29.79 11.59.012-36.142-8.916.039-.01 16.34-7.314-16.38-9.417.006L99.9 93.04l8.883-.006.033-16.741 7.58 16.758 9.172-.006zm29.049-12.095-9.451.017c-.325 3.462-1.082 4.219-2.507 4.22-3.05.002-3.403-3.693-3.41-10.227-.007-6.534.396-10.118 3.423-10.12 1.247-.001 2.115.6 2.335 3.627l9.373-.006c-.451-8.137-3.833-12.12-11.502-12.103-9.417.006-13.205 6.22-13.224 18.63-.008 12.4 3.772 18.609 12.978 18.614 8.281-.005 11.322-3.469 12.029-12.608l-.033-.033z"/></g></g><defs><clipPath id="a"><path fill="#fff" d="m92 0 117.913 117.913-92 92L0 92z"/></clipPath></defs></svg>
